X:5202
T:Fiddlers Of Manchester
R:Jig
S:Sully
H:
N:
D:Sully's Fancy
Z:Adrian Scahill
M:6/8
L:1/8
K:C
A3 edB|AGE DB,A,|A3 edB|AGE EDD|\
A3 ed/2c/2B AGEDB,A,|G,A,B, DED|DB,G, A,3:||/
A3 edB|edB gab|A3 edB|AGE EDD|\
A3 edB|edB gab|GAB dge|1 dBG A3:|2 dBG A2e||\
aba age|B/2^c/2de ceA|gag ged|BAG EGD|\
aba age|B/2c^/2de ceA|GAB dge|dBG A3:||
